modules/hawcons-stroke/icons/football.svg

<svg width="32" height="32" viewBox="0 0 32 32" xmlns="http://www.w3.org/2000/svg"><path d="M20 16h-1v-2h-1v2h-1v-2h-1v2h-1v-2h-1v2h-1v-2h-1v2h-2v1h2v2h1v-2h1v2h1v-2h1v2h1v-2h1v2h1v-2h1v2h1v-2h2v-1h-2v-2h-1v2zm-3.5-7C7 9 3 16.5 3 16.5S7 24 16.5 24 30 16.5 30 16.5 26 9 16.5 9zm0 1C8 10 4.2 16.5 4.2 16.5S8 23 16.5 23s12.3-6.5 12.3-6.5S25 10 16.5 10z" fill="#929292" fill-rule="evenodd"/></svg>

<?xml version="1.0" encoding="UTF-8" standalone="no"?>
<svg width="32px" height="32px" viewBox="0 0 32 32" version="1.1" xmlns="http://www.w3.org/2000/svg" xmlns:xlink="http://www.w3.org/1999/xlink" xmlns:sketch="http://www.bohemiancoding.com/sketch/ns">
    <!-- Generator: Sketch 3.0.3 (7891) - http://www.bohemiancoding.com/sketch -->
    <title>icon 9 football</title>
    <desc>Created with Sketch.</desc>
    <defs></defs>
    <g id="Page-1" stroke="none" stroke-width="1" fill="none" fill-rule="evenodd" sketch:type="MSPage">
        <g id="icon-9-football" sketch:type="MSArtboardGroup" fill="#929292">
            <path d="M20,16 L19,16 L19,14 L18,14 L18,16 L17,16 L17,14 L16,14 L16,16 L15,16 L15,14 L14,14 L14,16 L13,16 L13,14 L12,14 L12,16 L10,16 L10,17 L12,17 L12,19 L13,19 L13,17 L14,17 L14,19 L15,19 L15,17 L16,17 L16,19 L17,19 L17,17 L18,17 L18,19 L19,19 L19,17 L20,17 L20,19 L21,19 L21,17 L23,17 L23,16 L21,16 L21,14 L20,14 L20,16 L20,16 Z M16.5,9 C7,9 3,16.5 3,16.5 C3,16.5 7,24 16.5,24 C26,24 30,16.5 30,16.5 C30,16.5 26,9 16.5,9 L16.5,9 Z M16.5,10 C8,10 4.20001221,16.5 4.20001221,16.5 C4.20001221,16.5 8,23 16.5,23 C25,23 28.7999878,16.5 28.7999878,16.5 C28.7999878,16.5 25,10 16.5,10 L16.5,10 Z" id="football" sketch:type="MSShapeGroup"></path>
        </g>
    </g>
</svg>
